src/icons/svgs/24/thumbs-up.svg

<svg width="24" height="24" viewBox="0 0 24 24" fill="none" xmlns="http://www.w3.org/2000/svg">
<path d="M5.75 10.3919H3.25C2.55977 10.3919 2 10.9677 2 11.6415V20.6057C2 21.3157 2.55977 21.8554 3.25 21.8554H5.75C6.44023 21.8554 7 21.2796 7 20.6057V11.6777C7 11.0026 6.44141 10.3919 5.75 10.3919ZM22 11.8344C22 10.3521 20.8262 9.1455 19.384 9.1455H15.4832C15.8555 8.14179 16.0625 7.2739 16.0625 6.76361C16.0625 5.40551 15.0391 4 13.3258 4C11.5051 4 11.007 5.30345 10.6066 6.35055C9.36992 9.58507 8.25 9.01813 8.25 10.1062C8.25 10.6221 8.65469 11.0701 9.18828 11.0701C9.40093 11.0703 9.60724 10.9957 9.77305 10.8588C12.7715 8.39292 12.0375 5.92866 13.3258 5.92866C13.9539 5.92866 14.1875 6.44096 14.1875 6.76401C14.1875 7.0615 13.8909 8.35314 13.1895 9.64052C13.1109 9.78433 13.0697 9.94649 13.0697 10.1114C13.0697 10.6707 13.5162 11.0396 14.0072 11.0396H19.3822C19.793 11.075 20.125 11.4165 20.125 11.8344C20.125 12.2285 19.8216 12.5588 19.4348 12.5861C18.9402 12.6207 18.5613 13.0442 18.5613 13.5481C18.5613 14.1697 19.0063 14.1889 19.0063 14.7097C19.0063 15.7291 17.6379 15.2055 17.6379 16.4033C17.6379 16.8541 17.8876 16.9268 17.8876 17.2973C17.8876 18.2078 16.7247 17.8502 16.7247 18.9302C16.7247 19.1116 16.768 19.1697 16.768 19.3102C16.768 19.7301 16.4354 20.0716 16.027 20.0716H13.9751C12.9743 20.0716 11.9821 19.7314 11.1821 19.1149L9.75008 18.0095C9.58827 17.884 9.39106 17.8161 9.18836 17.8162C8.64734 17.8162 8.24969 18.2735 8.24969 18.7822C8.24969 19.075 8.37906 19.3616 8.62453 19.5508L10.057 20.6566C11.1797 21.5219 12.5703 22 13.9766 22H16.0285C17.4086 22 18.5426 20.8954 18.6379 19.5008C19.332 19.0094 19.7641 18.1945 19.7641 17.2977C19.764 17.1751 19.7556 17.0526 19.7391 16.9312C20.4359 16.443 20.8828 15.6221 20.8828 14.71C20.8828 14.4966 20.8578 14.2865 20.8095 14.0816C21.5273 13.5661 22 12.7666 22 11.8344Z" fill="black"/>
</svg>

<svg width="24" height="24" viewBox="0 0 24 24" xmlns="http://www.w3.org/2000/svg">
    <path d="M5.75 10.392h-2.5c-.69 0-1.25.576-1.25 1.25v8.964c0 .71.56 1.25 1.25 1.25h2.5c.69 0 1.25-.576 1.25-1.25v-8.928c0-.675-.559-1.286-1.25-1.286zM22 11.834c0-1.482-1.174-2.688-2.616-2.688h-3.9c.371-1.004.579-1.872.579-2.382C16.063 5.406 15.038 4 13.325 4c-1.82 0-2.319 1.303-2.72 2.35C9.37 9.586 8.25 9.019 8.25 10.107c0 .516.405.964.938.964a.917.917 0 0 0 .585-.211c2.998-2.466 2.264-4.93 3.553-4.93.628 0 .861.512.861.835 0 .297-.296 1.59-.997 2.877a.982.982 0 0 0-.12.47c0 .56.446.929.937.929h5.375a.808.808 0 0 1 .743.794.751.751 0 0 1-.69.752.953.953 0 0 0-.874.962c0 .622.445.64.445 1.162 0 1.02-1.368.495-1.368 1.693 0 .451.25.524.25.894 0 .91-1.163.553-1.163 1.633 0 .182.043.24.043.38 0 .42-.333.762-.741.762h-2.052c-1 0-1.993-.34-2.793-.957L9.75 18.01a.915.915 0 0 0-.562-.194c-.54 0-.938.457-.938.966 0 .293.13.58.375.769l1.432 1.106A6.456 6.456 0 0 0 13.977 22h2.052c1.38 0 2.514-1.105 2.609-2.5a2.693 2.693 0 0 0 1.101-2.569 2.71 2.71 0 0 0 1.144-2.221c0-.213-.025-.424-.073-.628.717-.516 1.19-1.315 1.19-2.248z"/>
</svg>
